src/assets/logos/dex.svg

<svg height="72" viewBox="0 0 274 72" width="274" xmlns="http://www.w3.org/2000/svg"><g transform="translate(-14 -14.005)"><path d="m134.774708 72.526296c12.396109 0 21.454003-9.3446591 21.454003-21.8359226 0-12.3967611-9.057894-21.7414201-21.454003-21.7414201h-10.871036v43.5773427zm-23.171339-53.3026185c0-.9534967.761884-1.8118393 1.716033-1.8118393h22.599111c18.403856 0 33.469496 14.9704853 33.469496 33.2785352 0 18.4977064-15.06564 33.4688436-33.469496 33.4688436h-22.599111c-.954149 0-1.716033-.8583427-1.716033-1.8118394zm68.801666 0c0-.9534967.761883-1.8118393 1.812491-1.8118393h38.807903c1.049955 0 1.811839.8583426 1.811839 1.8118393v7.8182822c0 .9541485-.761884 1.8118394-1.811839 1.8118394h-28.223633v15.6378679h23.551303c.954149 0 1.81184.8576908 1.81184 1.8118393v7.9147399c0 1.0486509-.857691 1.8118392-1.81184 1.8118392h-23.551303v16.6871706h28.223633c1.049955 0 1.811839.8576909 1.811839 1.8118394v7.8182822c0 .9534967-.761884 1.8118394-1.811839 1.8118394h-38.807903c-1.050608 0-1.812491-.8583427-1.812491-1.8118394zm71.644558 30.7035074-19.071238-29.8458165c-.762536-1.2389592 0-2.6695302 1.62153-2.6695302h11.060041c.763188 0 1.239611.4764225 1.526378.8583426l12.2058 20.2143915h.093851l12.396761-20.2143915c.190961-.3819201.763188-.8583426 1.526377-.8583426h11.06004c1.621532 0 2.384721 1.430571 1.621532 2.6695302l-19.166392 29.8458165 19.833122 31.5618502c.763189 1.3341132 0 2.6701819-1.620879 2.6701819h-10.297503c-.763189 0-1.42992-.4770744-1.62088-.8583427l-13.635068-21.8365743h-.287419l-13.444759 21.8365743c-.285462.3812683-.857691.8583427-1.62088.8583427h-10.297504c-1.716684 0-2.479874-1.4305711-1.716684-2.6701819z"/><g transform="matrix(.70710678 .70710678 -.70710678 .70710678 50.02579 53.783059)"><path d="m.956.992h16.424v16.424h-16.424z" opacity=".9"/><rect height="16.424" opacity=".6" rx="8.212" width="16.424" x="15.503" y=".992"/><rect height="16.424" opacity=".6" rx="8.212" width="16.424" x=".956" y="15.539"/></g><g transform="matrix(-.70710678 -.70710678 .70710678 -.70710678 49.68829 44.681564)"><path d="m0 0h16.424v16.424h-16.424z" opacity=".9"/><rect height="16.424" opacity=".6" rx="8.212" width="16.424" x="14.547"/><rect height="16.424" opacity=".6" rx="8.212" width="16.424" y="14.547"/></g><g transform="matrix(-.70710678 .70710678 -.70710678 -.70710678 44.682618 49.999854)"><path d="m0 0h16.424v16.424h-16.424z" opacity=".9"/><rect height="16.424" opacity=".6" rx="8.212" width="16.424" x="14.547"/><rect height="16.424" opacity=".6" rx="8.212" width="16.424" y="14.547"/></g><g transform="matrix(.70710678 -.70710678 .70710678 .70710678 53.783059 50.02579)"><path d="m.992.956h16.424v16.424h-16.424z" opacity=".9"/><rect height="16.424" opacity=".6" rx="8.212" width="16.424" x="15.539" y=".956"/><rect height="16.424" opacity=".6" rx="8.212" width="16.424" x=".992" y="15.503"/></g><path d="m34.7794259 49.9636824 15.3178632 15.0832366 15.1692663-15.2331369-15.318515-15.0819331zm15.3243805 20.0899092c-1.0343126 0-2.0093167-.3995172-2.7451321-1.1236011l-16.4382055-16.185982c-.7449397-.7332084-1.1581434-1.712123-1.1633572-2.7568634-.0045623-1.0447405.3995169-2.0275655 1.1366358-2.7672913l16.2759221-16.3437031c1.4664168-1.4735859 4.0368823-1.485969 5.5189409-.0267215l16.436902 16.183375c.7442879.7338601 1.1568398 1.7114712 1.1620539 2.7562116.0058656 1.0440889-.397562 2.0262621-1.134029 2.7672914l-16.2772256 16.3463102c-.7397258.7416809-1.7238544 1.1509742-2.7725053 1.1509742z"/></g></svg>

<svg xmlns="http://www.w3.org/2000/svg" width="274" height="72" viewBox="0 0 274 72">
  <g transform="translate(-14 -14.005)">
    <path d="M134.774708,72.526296 C147.170817,72.526296 156.228711,63.1816369 156.228711,50.6903734 C156.228711,38.2936123 147.170817,28.9489533 134.774708,28.9489533 L123.903672,28.9489533 L123.903672,72.526296 L134.774708,72.526296 Z M111.603369,19.2236775 C111.603369,18.2701808 112.365253,17.4118382 113.319402,17.4118382 L135.918513,17.4118382 C154.322369,17.4118382 169.388009,32.3823235 169.388009,50.6903734 C169.388009,69.1880798 154.322369,84.159217 135.918513,84.159217 L113.319402,84.159217 C112.365253,84.159217 111.603369,83.3008743 111.603369,82.3473776 L111.603369,19.2236775 Z M180.405035,19.2236775 C180.405035,18.2701808 181.166918,17.4118382 182.217526,17.4118382 L221.025429,17.4118382 C222.075384,17.4118382 222.837268,18.2701808 222.837268,19.2236775 L222.837268,27.0419597 C222.837268,27.9961082 222.075384,28.8537991 221.025429,28.8537991 L192.801796,28.8537991 L192.801796,44.491667 L216.353099,44.491667 C217.307248,44.491667 218.164939,45.3493578 218.164939,46.3035063 L218.164939,54.2182462 C218.164939,55.2668971 217.307248,56.0300854 216.353099,56.0300854 L192.801796,56.0300854 L192.801796,72.717256 L221.025429,72.717256 C222.075384,72.717256 222.837268,73.5749469 222.837268,74.5290954 L222.837268,82.3473776 C222.837268,83.3008743 222.075384,84.159217 221.025429,84.159217 L182.217526,84.159217 C181.166918,84.159217 180.405035,83.3008743 180.405035,82.3473776 L180.405035,19.2236775 Z M252.049593,49.9271849 L232.978355,20.0813684 C232.215819,18.8424092 232.978355,17.4118382 234.599885,17.4118382 L245.659926,17.4118382 C246.423114,17.4118382 246.899537,17.8882607 247.186304,18.2701808 L259.392104,38.4845723 L259.485955,38.4845723 L271.882716,18.2701808 C272.073677,17.8882607 272.645904,17.4118382 273.409093,17.4118382 L284.469133,17.4118382 C286.090665,17.4118382 286.853854,18.8424092 286.090665,20.0813684 L266.924273,49.9271849 L286.757395,81.4890351 C287.520584,82.8231483 286.757395,84.159217 285.136516,84.159217 L274.839013,84.159217 C274.075824,84.159217 273.409093,83.6821426 273.218133,83.3008743 L259.583065,61.4643 L259.295646,61.4643 L245.850887,83.3008743 C245.565425,83.6821426 244.993196,84.159217 244.230007,84.159217 L233.932503,84.159217 C232.215819,84.159217 231.452629,82.7286459 232.215819,81.4890351 L252.049593,49.9271849 Z"/>
    <g transform="rotate(45 -39.909 87.278)">
      <rect width="16.424" height="16.424" x=".956" y=".992" opacity=".9"/>
      <rect width="16.424" height="16.424" x="15.503" y=".992" opacity=".6" rx="8.212"/>
      <rect width="16.424" height="16.424" x=".956" y="15.539" opacity=".6" rx="8.212"/>
    </g>
    <g transform="rotate(-135 34.098 12.05)">
      <rect width="16.424" height="16.424" opacity=".9"/>
      <rect width="16.424" height="16.424" x="14.547" opacity=".6" rx="8.212"/>
      <rect width="16.424" height="16.424" y="14.547" opacity=".6" rx="8.212"/>
    </g>
    <g transform="rotate(135 11.986 34.254)">
      <rect width="16.424" height="16.424" opacity=".9"/>
      <rect width="16.424" height="16.424" x="14.547" opacity=".6" rx="8.212"/>
      <rect width="16.424" height="16.424" y="14.547" opacity=".6" rx="8.212"/>
    </g>
    <g transform="rotate(-45 87.278 -39.909)">
      <rect width="16.424" height="16.424" x=".992" y=".956" opacity=".9"/>
      <rect width="16.424" height="16.424" x="15.539" y=".956" opacity=".6" rx="8.212"/>
      <rect width="16.424" height="16.424" x=".992" y="15.503" opacity=".6" rx="8.212"/>
    </g>
    <path d="M34.7794259,49.9636824 L50.0972891,65.046919 L65.2665554,49.8137821 L49.9480404,34.731849 L34.7794259,49.9636824 Z M50.1038064,70.0535916 C49.0694938,70.0535916 48.0944897,69.6540744 47.3586743,68.9299905 L30.9204688,52.7440085 C30.1755291,52.0108001 29.7623254,51.0318855 29.7571116,49.9871451 C29.7525493,48.9424046 30.1566285,47.9595796 30.8937474,47.2198538 L47.1696695,30.8761507 C48.6360863,29.4025648 51.2065518,29.3901817 52.6886104,30.8494292 L69.1255124,47.0328042 C69.8698003,47.7666643 70.2823522,48.7442754 70.2875663,49.7890158 C70.2934319,50.8331047 69.8900043,51.8152779 69.1535373,52.5563072 L52.8763117,68.9026174 C52.1365859,69.6442983 51.1524573,70.0535916 50.1038064,70.0535916 Z"/>
  </g>
</svg>
